X:272
T:Wild Roadside Lupins Jig
R:jig
C:Bruce Osborne - Nov. 2004
Z:abc by bosborne@kos.net
M:6/8
L:1/8
K:Gmaj
Bc|dBG DED|B,DB, G,3|G,B,D GDG|F3 A2 B|\
cBc ABA|FAF D3|d^cd ed=c|B3 -BBc|\
dBG DED|B,DB, G,3|G,B,D GF^E|E3 -EEF|\
GFG AGA|BGE D2 D|EDE FED|G4 Bc||\
d^cd gfg|baf gBc|d^cd dBG|F4 AB|\
cBc ABA|FAF D3|d^cd ed=c||B4 B=c|\
d^cd gfg|baf gBc|d^cd gf^e|e4 ef|\
gfg age|d^cd fed|ded cBA|G4||
